assets/Woman getting massage/Medium-Light/Flat/woman_getting_massage_flat_medium-light.svg

<svg width="32" height="32" viewBox="0 0 32 32" fill="none" xmlns="http://www.w3.org/2000/svg">
<path d="M24.5 14.6257C24.5 15.2131 24.3695 15.7569 24.1302 16.2463C24.0541 16.4095 24.0541 16.5944 24.1302 16.7684C24.3695 17.247 24.5 17.7799 24.5 18.3564C24.5 20.3685 22.8685 22 20.8564 22H11.1436C9.13148 22 7.5 20.3685 7.5 18.3564C7.5 17.7908 7.63052 17.247 7.8698 16.7684C7.94594 16.6052 7.94594 16.4095 7.8698 16.2463C7.63052 15.7569 7.5 15.2022 7.5 14.6257C7.5 13.8644 7.72841 13.1574 8.11996 12.5592C8.51152 11.9718 8.71817 11.2758 8.71817 10.5579V10.547C8.71817 8.49136 10.3932 6.81638 12.4488 6.81638C12.6555 6.81638 12.8512 6.72937 12.9709 6.55534C13.6452 5.61996 14.7438 5 15.9946 5C17.2454 5 18.3548 5.61996 19.04 6.56622C19.1596 6.72937 19.3445 6.82726 19.5512 6.82726C21.6177 6.82726 23.2818 8.50224 23.2818 10.5579V10.5688C23.2818 11.2758 23.4885 11.9718 23.88 12.5701C24.2716 13.1574 24.5 13.8644 24.5 14.6257Z" fill="#FFF9BA"/>
<path d="M23 14.45C23 15.4164 22.2165 16.2 21.25 16.2C20.2835 16.2 19.5 15.4164 19.5 14.45C19.5 13.4835 20.2835 12.7 21.25 12.7C22.2165 12.7 23 13.4835 23 14.45Z" fill="#E4B29A"/>
<path d="M12.5 14.5C12.5 15.4664 11.7165 16.25 10.75 16.25C9.7835 16.25 9 15.4664 9 14.5C9 13.5335 9.7835 12.75 10.75 12.75C11.7165 12.75 12.5 13.5335 12.5 14.5Z" fill="#E4B29A"/>
<path d="M26.5 30.0001C25.664 25.1101 21.2827 21.3701 15.995 21.3701C10.7072 21.3701 6.33597 25.1101 5.5 30.0001H26.5Z" fill="#8B62BF"/>
<path d="M16 24C14.896 24 14 23.0138 14 21.7987V19.2013C14 17.9862 14.896 17 16 17C17.104 17 18 17.9862 18 19.2013V21.7987C18 23.0138 17.104 24 16 24Z" fill="#E4B29A"/>
<path d="M20.4649 11.0325H16.8293C15.3904 11.0325 14.0504 10.3148 13.2376 9.12234C13.0948 8.93463 12.7982 8.96775 12.7104 9.18859L12.6225 9.39838C12.3699 10.0388 11.8756 10.5357 11.2715 10.8007C11.2385 10.8227 11.1946 10.8448 11.1507 10.8559C10.8871 10.9884 10.261 11.408 10.25 12.49L10.4038 16.1227C10.5356 19.3469 13.0069 21.5 16.0055 21.5C19.0041 21.5 21.4754 19.3358 21.6072 16.1227L21.75 12.6667C21.728 11.143 20.6736 11.0436 20.4649 11.0325Z" fill="#EEBFAA"/>
<path d="M12.0625 12.9803C12.1225 13.0603 12.2225 13.1003 12.3125 13.1003C12.3725 13.1003 12.4425 13.0803 12.5025 13.0303C12.5025 13.0303 13.1725 12.5203 14.1625 12.6403C14.3425 12.6603 14.4925 12.5403 14.5125 12.3703C14.5325 12.2003 14.4125 12.0403 14.2425 12.0203C13.0002 11.8811 12.1727 12.5026 12.1233 12.5397L12.1225 12.5403C11.9825 12.6503 11.9625 12.8403 12.0625 12.9803Z" fill="#A56953"/>
<path d="M19.9126 13.0402C19.9726 13.0802 20.0326 13.1002 20.1026 13.1002C20.2026 13.1002 20.2926 13.0602 20.3426 12.9902C20.4426 12.8502 20.4226 12.6502 20.2826 12.5502L20.2815 12.5494C20.2293 12.5102 19.3928 11.8814 18.1626 12.0302C17.9926 12.0502 17.8726 12.2102 17.8926 12.3802C17.9126 12.5502 18.0626 12.6702 18.2426 12.6502C19.1395 12.5404 19.7851 12.9583 19.8958 13.0299C19.906 13.0366 19.9126 13.0402 19.9126 13.0402Z" fill="#A56953"/>
<path d="M15.5923 14.3163L15.0262 16.2163C14.9111 16.6063 15.1893 16.9963 15.5827 16.9963H16.4173C16.8107 16.9963 17.0889 16.5963 16.9738 16.2063L16.4077 14.3063C16.283 13.8963 15.717 13.8963 15.5923 14.3163Z" fill="#D19479"/>
<path d="M16.01 18.0199C15.3815 18.0199 14.7844 17.8799 14.2816 17.6199C14.114 17.5299 13.9254 17.7199 14.0302 17.8699C14.4492 18.4899 15.172 18.8899 15.9995 18.8899C16.827 18.8899 17.5498 18.4799 17.9688 17.8699C18.0735 17.7199 17.8955 17.5299 17.7174 17.6199C17.2251 17.8699 16.6385 18.0199 16.01 18.0199Z" fill="#990838"/>
<path d="M11.8655 2H8.5L8.50999 13.61C8.50999 14.23 8.98935 14.76 9.60852 14.78C10.2577 14.8 10.7869 14.28 10.7869 13.64V10.45C10.7869 9.73 11.6558 9.37 12.1651 9.88L12.8043 10.53C13.2636 10.98 14.0027 10.97 14.4421 10.49C14.8615 10.04 14.8315 9.33 14.3921 8.89L12.5746 7.07C12.1252 6.61 11.8655 6 11.8655 5.35V2Z" fill="#D6A089"/>
<path d="M20.1345 2H23.5L23.49 13.6C23.49 14.22 23.0107 14.75 22.3915 14.77C21.7423 14.79 21.2131 14.27 21.2131 13.63V10.44C21.2131 9.72 20.3542 9.36 19.8449 9.87L19.1957 10.52C18.7463 10.98 17.9973 10.97 17.5579 10.49C17.1385 10.04 17.1684 9.33 17.6079 8.89L19.4254 7.07C19.8748 6.61 20.1345 6 20.1345 5.35V2Z" fill="#D6A089"/>
<path d="M14.4088 14.14C14.4671 14.08 14.5449 14.04 14.6227 14.04C14.8657 14.04 14.9921 14.32 14.8366 14.51C14.5255 14.88 14.0685 15.11 13.5727 15.11C13.0769 15.11 12.6297 14.88 12.3186 14.51C12.1631 14.32 12.2894 14.04 12.5228 14.04C12.6103 14.04 12.6783 14.08 12.7367 14.14C12.9408 14.38 13.2422 14.53 13.5727 14.53C13.9033 14.53 14.2047 14.38 14.4088 14.14Z" fill="#A56953"/>
<path d="M19.26 14.14C19.3183 14.08 19.3961 14.04 19.4739 14.04C19.7072 14.04 19.8336 14.32 19.6878 14.51C19.3767 14.88 18.9197 15.11 18.4239 15.11C17.9281 15.11 17.4809 14.88 17.1698 14.51C17.0143 14.32 17.1406 14.04 17.374 14.04C17.4615 14.04 17.5295 14.08 17.5878 14.14C17.792 14.38 18.0934 14.53 18.4239 14.53C18.7545 14.53 19.0558 14.38 19.26 14.14Z" fill="#A56953"/>
</svg>

<svg xmlns="http://www.w3.org/2000/svg" width="32" height="32" fill="none"><path fill="#FFF9BA" d="M24.5 14.626c0 .587-.13 1.13-.37 1.62a.625.625 0 0 0 0 .522c.24.479.37 1.012.37 1.588A3.644 3.644 0 0 1 20.856 22h-9.712A3.644 3.644 0 0 1 7.5 18.356c0-.565.13-1.109.37-1.588a.625.625 0 0 0 0-.522 3.756 3.756 0 0 1 .25-3.687 3.603 3.603 0 0 0 .598-2.001v-.011a3.737 3.737 0 0 1 3.73-3.73.62.62 0 0 0 .523-.262A3.722 3.722 0 0 1 15.995 5c1.25 0 2.36.62 3.045 1.566.12.163.305.261.511.261a3.73 3.73 0 0 1 3.73 3.73v.012c0 .707.207 1.403.599 2.001.392.587.62 1.294.62 2.056Z"/><path fill="#E4B29A" d="M23 14.45a1.75 1.75 0 1 1-3.5 0 1.75 1.75 0 0 1 3.5 0ZM12.5 14.5a1.75 1.75 0 1 1-3.5 0 1.75 1.75 0 0 1 3.5 0Z"/><path fill="#8B62BF" d="M26.5 30c-.836-4.89-5.217-8.63-10.505-8.63-5.288 0-9.659 3.74-10.495 8.63h21Z"/><path fill="#E4B29A" d="M16 24c-1.104 0-2-.986-2-2.201V19.2c0-1.215.896-2.201 2-2.201s2 .986 2 2.201V21.8C18 23.014 17.104 24 16 24Z"/><path fill="#EEBFAA" d="M20.465 11.033h-3.636a4.348 4.348 0 0 1-3.591-1.91c-.143-.188-.44-.155-.528.066l-.088.21a2.557 2.557 0 0 1-1.35 1.402.41.41 0 0 1-.121.055c-.264.132-.89.552-.901 1.634l.154 3.633c.132 3.224 2.603 5.377 5.602 5.377 2.998 0 5.47-2.164 5.601-5.377l.143-3.456c-.022-1.524-1.076-1.623-1.285-1.634Z"/><path fill="#A56953" d="M12.063 12.98c.06.08.16.12.25.12.06 0 .13-.02.19-.07 0 0 .67-.51 1.66-.39.18.02.33-.1.35-.27.02-.17-.1-.33-.27-.35-1.243-.139-2.07.483-2.12.52-.14.11-.16.3-.06.44ZM19.913 13.04c.06.04.12.06.19.06.1 0 .19-.04.24-.11.1-.14.08-.34-.06-.44h-.002c-.052-.04-.888-.669-2.118-.52-.17.02-.29.18-.27.35.02.17.17.29.35.27.897-.11 1.542.308 1.653.38l.017.01Z"/><path fill="#D19479" d="m15.592 14.316-.566 1.9c-.115.39.163.78.557.78h.834c.394 0 .672-.4.557-.79l-.566-1.9a.423.423 0 0 0-.816.01Z"/><path fill="#990838" d="M16.01 18.02c-.629 0-1.226-.14-1.728-.4-.168-.09-.357.1-.252.25A2.357 2.357 0 0 0 16 18.89c.827 0 1.55-.41 1.969-1.02.104-.15-.074-.34-.252-.25-.492.25-1.078.4-1.707.4Z"/><path fill="#D6A089" d="M11.866 2H8.5l.01 11.61c0 .62.48 1.15 1.099 1.17.649.02 1.178-.5 1.178-1.14v-3.19c0-.72.869-1.08 1.378-.57l.64.65c.459.45 1.198.44 1.637-.04.42-.45.39-1.16-.05-1.6l-1.817-1.82c-.45-.46-.71-1.07-.71-1.72V2ZM20.134 2H23.5l-.01 11.6c0 .62-.48 1.15-1.098 1.17-.65.02-1.179-.5-1.179-1.14v-3.19a.8.8 0 0 0-1.368-.57l-.65.65c-.449.46-1.198.45-1.637-.03-.42-.45-.39-1.16.05-1.6l1.817-1.82c.45-.46.71-1.07.71-1.72V2Z"/><path fill="#A56953" d="M14.409 14.14c.058-.06.136-.1.214-.1.243 0 .37.28.214.47-.312.37-.768.6-1.264.6s-.943-.23-1.254-.6c-.156-.19-.03-.47.204-.47.087 0 .155.04.214.1.204.24.505.39.836.39.33 0 .632-.15.836-.39ZM19.26 14.14c.058-.06.136-.1.214-.1.233 0 .36.28.214.47-.311.37-.768.6-1.264.6s-.943-.23-1.254-.6c-.156-.19-.03-.47.204-.47a.29.29 0 0 1 .214.1c.204.24.505.39.836.39.33 0 .632-.15.836-.39Z"/></svg>
